X:1
T:Bruckner Scherzo Klavier
T:Bruckner Scherzo Klavier
%%score { ( 1 3 ) | 2 }
L:1/8
Q:3/4=80
M:3/4
K:C
V:1 treble nm="Klavier" snm="Klav."
V:3 treble 
V:2 bass 
V:1
 z6 | z6 | z6 | z6 |!p! E6 | e6 | A7/2 A/ A2 | E6 |!mf! (c4- cD) | (B4- BC) | (A4- AB,) | E6 | %12
!p! E6 | e6 | A7/2 A/ A2 | E6 |!mf! (c4- cD) | (B4- BC) | (A4- AB,) | G4 z2 | (a4- aB) | (g4- gA) | %22
 (f4- f^G) | e4 z2 | (d'4- d'e) | (c'4- c'd) | (_b4- b^c) | a4 z2 |!mf! _E6 | _e6 | _A7/2 A/ A2 | %31
 _E6 |!f! E6 | e6 | A7/2 A/ A2 | E6 |!ff! F6 | f6 | _B7/2 B/ B2 | F6 | ^A7/2 A/ A2 | ^D7/2 D/ D2 | %42
 ^B7/2 ^B/ ^B2 | ^E7/2 ^E/ ^E2 | =d7/2 =d/ =d2 | ^d7/2 d/ d2 | e7/2 e/ e2 | ^e7/2 ^e/ ^e2 | %48
 a7/2 a/ a2 | _b7/2 b/ b2 | _c'4 c'2- | c'2 _g2 _c'2 |!fff! g6 | g'6 | c'7/2 c'/ c'2 | g6 | %56
 !wedge!G2 !wedge!g2 !wedge!f2 | !wedge!_e2 !wedge!d2 !wedge!c2 | !wedge!_B2 !wedge!_A2 !wedge!G2 | %59
 !wedge!F2 !wedge!_E2 !wedge!F2 | d'7/2 d'/ d'2 | g7/2 g/ g2 | d'7/2 d'/ d'2 | g7/2 g/ g2 | %64
 _e'7/2 e'/ e'2 | _e'7/2 e'/ e'2 | _e'7/2 e'/ e'2 | _e'7/2 e'/ d'2 | [Gg]6 | [gg']6 | %70
 [cc']7/2 [cc']/ [cc']2 | [Gg]6 | ([cc'][dd'] !wedge![_e_e']2) !wedge![dd']2 | %73
 !wedge![cc']2 !wedge![Bb]2 !wedge![_B_b]2 | !wedge![Aa]2 !wedge![_A_a]2 !wedge![Gg]2 | %75
 !wedge![Ff]2 !wedge![_E_e]2 !wedge![Dd]2 | [Gg]6 | [gg']6 | [cc']7/2 [cc']/ [cc']2 | [Gg]6 | C6 | %81
 c6 | G7/2 G/ G2 | G6 | C6 | c6 | G7/2 G/ G2 | g7/2 g/ g2 | c2 z4 | z6 | z6 | z6 | z6 | z6 | z6 | %95
 z6 |!p! (c4- cD) | (_B4- BC) | (_A4- AB,) | G4 z2 | z6 | z6 | z6 | z6 |!p! (_e4- eF) | %105
 (_d4- d_E) | (_c4- c_D) | _B4 z2 | e'6 | e6 | b7/2 b/ b2 | e'6 |!mf! ^g'6 | ^g6 | ^c'7/2 c'/ c'2 | %115
!f! ^g'6 | e6 | E6 | B7/2 B/ B2 | e6 |!f! (a4- aB) | (g4- gA) | (f4- fG) | e4 z2 | %124
!p! (eA !wedge!G2) !wedge!e2 |"_cresc." !wedge!f2 !wedge!A2 !wedge!f2 | (gc !wedge!_B2) !wedge!g2 | %127
 !wedge!a2 !wedge!^c2 !wedge!a2 |!mf! (f_B !wedge!A2) !wedge!f2 | %129
"_cresc." !wedge!g2 !wedge!_B2 !wedge!g2 | (af !wedge!^c2) !wedge!a2 | %131
 !wedge!_b2 !wedge!_d2 !wedge!b2 |!f! (g_c !wedge!_B2) !wedge!g2 | (_a_d !wedge!c2) !wedge!=a2 | %134
 (_b_e !wedge!_d2) !wedge!b2 | (_c'_e !wedge!_d2) !wedge!c'2 |!p! (_B_E !wedge!_D2) !wedge!B2 | %137
 (_B_E !wedge!_D2) !wedge!B2 | (_B_E !wedge!_D2) !wedge!B2 | (_B_E !wedge!_D2) !wedge!B2 | %140
!pp! (_b_e !wedge!_d2) !wedge!=a2 | (_b_e !wedge!_d2) !wedge!b2 | (_d'_b !wedge!e2) !wedge!d'2 | %143
 (_e'_b !wedge!_f2) !wedge!e'2 |!ff! (_A,4- A,A,) | (_A,4- A,_B,) | (_B,4- B,=C) |"_dim." _C4 z2 | %148
!pp! (AG ^F2 d2) | A6 | (AG ^F2 ^f2) | d6 | z2 c'_e' _g'2 | _e'2 c'e' _g'2 | _e'2 c'e' _g'2 | %155
 _e'2 c'e' _a'2 |!p! _A6 | _a6 | _d7/2 d/ d2 | _A6 | _B6 | _b6 | _e7/2 e/ e2 | _B6 | %164
"_cresc." _b7/2 b/ b2 | _e7/2 e/ e2 | _b7/2 b/ b2 | _e7/2 e/ e2 | _d'7/2 d'/ d'2 | _g7/2 g/ g2 | %170
 _d'7/2 d'/ d'2 | _g7/2 g/ g2 | [_e_e']7/2 [ee']/ [ee']2 | [_e_e']7/2 [ee']/ [ee']2 | %174
 [_e_e']7/2 [ee']/ [ee']2 | [_e_e']7/2 [ee']/ [ee']2 | %176
!ff!!ff! ([^f^f'][ee'] !wedge![^d^d']2) !wedge![ee']2 | %177
 ([^f^f'][ee'] !wedge![^d^d']2) !wedge![ee']2 | ([^f^f'][ee'] !wedge![^d^d']2) !wedge![ee']2 | %179
 ([^f^f'][ee'] !wedge![^d^d']2) !wedge![ee']2 |!pp! (=f'e' !wedge!=d'2) !wedge!e'2 | %181
 (=f'e' !wedge!=d'2) !wedge!e'2 | (=f'e' !wedge!=d'2) !wedge!e'2 | (=f'e' !wedge!=d'2) !wedge!e'2 | %184
!p! E6 | e6 | A7/2 A/ A2 | E6 |!mf! (c4- cD) | (B4- BC) | (A4- AB,) | E6 |!p! E6 | e6 | %194
 A7/2 A/ A2 | E6 |!mf! (c4- cD) | (B4- BC) | (A4- AB,) | G4 z2 | (a4- aB) | (g4- gA) | (f4- f^G) | %203
 e4 z2 | (d'4- d'e) | (c'4- c'd) | (_b4- b^c) | a4 z2 |!mf! _E6 | _e6 | _A7/2 A/ A2 | _E6 |!f! E6 | %213
 e6 | A7/2 A/ A2 | E6 |!ff! F6 | f6 | _B7/2 B/ B2 | F6 | ^A7/2 A/ A2 | ^D7/2 D/ D2 | %222
 ^B7/2 ^B/ ^B2 | ^E7/2 ^E/ ^E2 | =d7/2 =d/ =d2 | ^d7/2 d/ d2 | e7/2 e/ e2 | ^e7/2 ^e/ ^e2 | %228
 a7/2 a/ a2 | _b7/2 b/ b2 | _c'4 c'2- | c'2 _g2 _c'2 |!fff! g6 | g'6 | c'7/2 c'/ c'2 | g6 | %236
 !wedge!G2 !wedge!g2 !wedge!f2 | !wedge!_e2 !wedge!d2 !wedge!c2 | !wedge!_B2 !wedge!_A2 !wedge!G2 | %239
 !wedge!F2 !wedge!_E2 !wedge!F2 | d'7/2 d'/ d'2 | g7/2 g/ g2 | d'7/2 d'/ d'2 | g7/2 g/ g2 | %244
 _e'7/2 e'/ e'2 | _e'7/2 e'/ e'2 | _e'7/2 e'/ e'2 | _e'7/2 e'/ d'2 | [Gg]6 | [gg']6 | %250
 [cc']7/2 [cc']/ [cc']2 | [Gg]6 | ([cc'][dd'] !wedge![_e_e']2) !wedge![dd']2 | %253
 !wedge![cc']2 !wedge![Bb]2 !wedge![_B_b]2 | !wedge![Aa]2 !wedge![_A_a]2 !wedge![Gg]2 | %255
 !wedge![Ff]2 !wedge![_E_e]2 !wedge![Dd]2 | [Gg]6 | [gg']6 | [cc']7/2 [cc']/ [cc']2 | [Gg]6 | C6 | %261
 c6 | G7/2 G/ G2 | G6 | C6 | c6 | G7/2 G/ G2 | g7/2 g/ g2 | c2 z4 |] %269
V:2
!pp! (A,,B,, !wedge!C,2) !wedge!B,,2 | (A,,B,, !wedge!C,2) !wedge!B,,2 | %2
 (A,,B,, !wedge!C,2) !wedge!B,,2 | (A,,B,, !wedge!C,2) !wedge!B,,2 | %4
 (A,,B,, !wedge!C,2) !wedge!B,,2 | (A,,E, !wedge!A,2) !wedge!G,2 | %6
 !wedge!F,2 !wedge!E,2 !wedge!D,2 | !wedge!E,2 !wedge!D,2 !wedge!E,2 | %8
!mf! (A,,C, !wedge!F,2) !wedge!A,,2 | !wedge!G,,2 !wedge!E,2 !wedge!G,,2 | %10
 (F,,A,, !wedge!D,2) !wedge!F,,2 |"_dim." (E,,2 D,2 C,2) |!pp! (A,,B,, !wedge!C,2) !wedge!B,,2 | %13
 (A,,E, !wedge!A,2) !wedge!G,2 | !wedge!F,2 !wedge!E,2 !wedge!D,2 | %15
 !wedge!E,2 !wedge!D,2 !wedge!E,2 |!mf! (A,,C, !wedge!F,2) !wedge!A,,2 | %17
 !wedge!G,,2 !wedge!E,2 !wedge!G,,2 | (F,,A,, !wedge!D,2) !wedge!F,,2 | (E,,2 C,2 E,,2) | %20
 (F,A, !wedge!C2) !wedge!G,2 | !wedge!E,2 !wedge!C2 !wedge!E,2 | (D,F, !wedge!B,2) !wedge!D,2 | %23
 (C,2 A,2 C,2) | (_B,D !wedge!G2) !wedge!B,2 | !wedge!A,2 !wedge!F2 !wedge!A,2 | %26
 (G,_B, !wedge!E2) !wedge!G,2 | (E,2 ^C2 E,2) |!p! (=F,,_G,, !wedge!_A,,2) !wedge!G,,2 | %29
 (F,,_E, !wedge!_D,2) !wedge!C,2 | !wedge!_B,,2 !wedge!_A,,2 !wedge!_G,,2 | %31
 !wedge!F,,2 !wedge!=E,,2 !wedge!F,,2 |!mf! (^F,,G,, !wedge!A,,2) !wedge!G,,2 | %33
 (^F,,_E, !wedge!D,2) !wedge!C,2 | !wedge!_B,,2 !wedge!A,,2 !wedge!G,,2 | %35
 !wedge!^F,,2 !wedge!E,,2 !wedge!F,,2 |!f! (G,,_A,, !wedge!_B,,2) !wedge!A,,2 | %37
 (G,,_A, !wedge!G,2) !wedge!_E,2 | !wedge!C,2 !wedge!_D,2 !wedge!C,2 | %39
 !wedge!_G,2 !wedge!F,2 !wedge!G,2 |!ff! (_A,,_E, !wedge!_A,2) !wedge!A,,2 | %41
 !wedge!=A,2 !wedge!B,,2 !wedge!A,2 | (_B,,F, !wedge!_B,2) !wedge!B,,2 | %43
 !wedge!=B,2 !wedge!=D,2 !wedge!B,2 | (C,G, !wedge!C2) !wedge!C,2 | %45
 !wedge!^C2 !wedge!^D,2 !wedge!C2 | (D,A, !wedge!D2) !wedge!D,2 | %47
 !wedge!^D2 !wedge!^F,2 !wedge!D2 | !wedge![=E,E]2 !wedge![_E,_E]2 !wedge![=E,=E]2 | %49
 !wedge![F,F]2 !wedge![E,E]2 !wedge![F,F]2 | [^F,^F]6- | [F,F]2 !wedge![^F,^F]2 !wedge![F,F]2 | %52
 !wedge![G,G]2 !wedge!G2 !wedge!F2 | !wedge!_E2 !wedge!D2 !wedge!C2 | %54
 !wedge!_B,2 !wedge!_A,2 !wedge!G,2 | !wedge!F,2 !wedge!_E,2 !wedge!F,2 | G,6 | G6 | C7/2 C/ C2 | %59
 G,6 | [D,D]6 | [G,,G,]6 | [D,D]6 | [G,,G,]6 | [_E,_E]6 | [_E,_E]6 | [_E,_E]6 | [_E,_E]6 | %68
 ([C,C][D,D] !wedge![_E,_E]2) !wedge![D,D]2 | !wedge![C,C]2 !wedge![B,,B,]2 !wedge![_B,,_B,]2 | %70
 !wedge![A,,A,]2 !wedge![_A,,_A,]2 !wedge![G,,G,]2 | %71
 !wedge![F,,F,]2 !wedge![_E,,_E,]2 !wedge![D,,D,]2 | [G,,G,]6 | [G,G]6 | [C,C]7/2 [C,C]/ [C,C]2 | %75
 [G,,G,]6 | ([C,C][D,D] !wedge![_E,_E]2) !wedge![D,D]2 | %77
 !wedge![C,C]2 !wedge![B,,B,]2 !wedge![_B,,_B,]2 | %78
 !wedge![A,,A,]2 !wedge![_A,,_A,]2 !wedge![G,,G,]2 | %79
 !wedge![F,,F,]2 !wedge![_E,,_E,]2 !wedge![D,,D,]2 | (C,D, !wedge!_E,2) !wedge!D,2 | %81
 (C,D, !wedge!_E,2) !wedge!D,2 | (C,D, !wedge!_E,2) !wedge!D,2 | (C,D, !wedge!_E,2) !wedge!D,2 | %84
 (C,D, !wedge!_E,2) !wedge!D,2 | (C,D, !wedge!_E,2) !wedge!D,2 | (C,D, !wedge!_E,2) !wedge!D,2 | %87
 (C,D, !wedge!_E,2) !wedge!G,2 | C2 z4 | z6 |!pp! C,7/2 C,/ C,2 | C,7/2 C,/ C,2 | %92
 (_A,,_B,, !wedge!C,2) !wedge!B,,2 | (_A,,_B,, !wedge!C,2) !wedge!B,,2 | %94
 (_A,,_B,, !wedge!C,2) !wedge!B,,2 | (_A,,_B,, !wedge!C,2) !wedge!B,,2 | %96
!p! (_A,,C, !wedge!F,2) !wedge!A,,2 | !wedge!G,,2 !wedge!_E,2 !wedge!G,,2 | %98
 (F,,_A,, !wedge!D,2) !wedge!F,,2 | (_E,,2 _B,,2 E,,2) |!pp! (_G,,_A,, !wedge!_B,,2) !wedge!A,,2 | %101
 (_G,,_A,, !wedge!_B,,2) !wedge!A,,2 | (_G,,_A,, !wedge!_B,,2) !wedge!A,,2 | %103
 (_G,,_A,, !wedge!_B,,2) !wedge!A,,2 |!p! (_C,_E, !wedge!_A,2) !wedge!C,2 | %105
 !wedge!_B,,2 !wedge!_G,2 !wedge!B,,2 | (_A,,_C, !wedge!F,2) !wedge!A,,2 | (_G,,2 _D,2 G,,2) | %108
 (^C,=B,, !wedge!=A,,2) !wedge!B,,2 | (^C,B,, !wedge!A,,2) !wedge!E,2 | (E,^F, E,2 F,^D,) | %111
 (B,,2 ^B,,2 ^C,^D,) |"_cresc." (E,^D, !wedge!^C,2) !wedge!D,2 | (E,^D, !wedge!^C,2) !wedge!D,2 | %114
 (E,^D, !wedge!^C,2) !wedge!D,2 | (E,^D, !wedge!^C,2) !wedge!D,2 | %116
!mf! (G,^F, !wedge!E,2) !wedge!F,2 | (G,^F, !wedge!E,2) !wedge!F,2 | %118
 (G,^F, !wedge!E,2) !wedge!F,2 | (G,^F, !wedge!E,2) !wedge!F,2 |!f! (=F,A, !wedge!D2) !wedge!F,2 | %121
 !wedge!E,2 !wedge!C2 !wedge!_E,2 | (D,F, !wedge!=B,2) !wedge!D,2 | (=B,,2 ^G,2 B,,2) | %124
!p! (C,4- C,_B,) |"_cresc." (D,4- D,C) | (_E,4- E,D) | ^C_B, A,G, F,E, | (D,4- D,C) | %129
"_cresc." (E,4- E,D) | (F,4- F,_E) | G,_A, G,F, _E,D, |!f! (_E,4- E,_D) | (F,4- F,_E) | %134
 (_G,4- G,_D) | F,4- F,_D | ^A,4- A,^C, | B,4- B,^C, | ^A,4- A,^C, | B,4- B,^C, | %140
[K:treble]!pp! (_G4- G_d) | (_G4- G_d) | (=G4- Ge) | =G4 z2 |!ff! (C,_A,, E,,2 C,2) | %145
 (D,2 ^F,,2 D,2) | (E,C, G,,2 E,2) |"_dim." (F,2 _A,,2 F,2) |!pp! (^F,D, =A,,2 F,2) | %149
 (G,2 A,,2 G,2) | (A,^F, A,,2 A,2) | (B,2 A,,2 B,2) |[K:treble] c_A _E2 B2 | c_A _E2 B2 | %154
 c_A _E2 B2 | c_A _E2 B2 |!p! (F_E !wedge!_D2) !wedge!E2 | (F_E !wedge!_D2) !wedge!E2 | %158
 (F_E !wedge!_D2) !wedge!E2 | (F_E !wedge!_D2) !wedge!E2 | (_GF !wedge!_E2) !wedge!F2 | %161
 (_GF !wedge!_E2) !wedge!F2 | (_GF !wedge!_E2) !wedge!F2 | (_GF !wedge!_E2) !wedge!F2 | %164
"_cresc." (_GF !wedge!G2) !wedge!G2 | (_GF !wedge!G2) !wedge!G2 | (_B_A !wedge!_G2) !wedge!G2 | %167
 (_B_A !wedge!_G2) !wedge!B2 | (_GF !wedge!_E2) !wedge!F2 | (_GF !wedge!_E2) !wedge!G2 | %170
 (_B_A !wedge!_G2) !wedge!A2 | (_B_A !wedge!_G2) !wedge!B2 | %172
 ([_B,_B][_A,_A] !wedge![G,G]2) !wedge![A,A]2 | ([_B,_B][_A,_A] !wedge![G,G]2) !wedge![A,A]2 | %174
 ([_B,_B][_A,_A] !wedge![G,G]2) !wedge![A,A]2 | ([_B,_B][_A,_A] !wedge![G,G]2) !wedge![A,A]2 | %176
[K:bass]!ff! =E,,=B,, !wedge!=E,2 !wedge!E,,2 | E,,B,, !wedge!E,2 !wedge!E,,2 | %178
 E,,B,, !wedge!E,2 !wedge!E,,2 | E,,B,, !wedge!E,2 !wedge!E,,2 | %180
!pp! E,,B,, !wedge!E,2 !wedge!E,,2 | E,,B,, !wedge!E,2 !wedge!E,,2 | %182
 E,,B,, !wedge!E,2 !wedge!E,,2 | E,,B,, !wedge!E,2 !wedge!E,,2 | (A,,B,, !wedge!C,2) !wedge!B,,2 | %185
 (A,,E, !wedge!A,2) !wedge!G,2 | !wedge!F,2 !wedge!E,2 !wedge!D,2 | %187
 !wedge!E,2 !wedge!D,2 !wedge!E,2 |!mf! (A,,C, !wedge!F,2) !wedge!A,,2 | %189
 !wedge!G,,2 !wedge!E,2 !wedge!G,,2 | (F,,A,, !wedge!D,2) !wedge!F,,2 |"_dim." (E,,2 D,2 C,2) | %192
!pp! (A,,B,, !wedge!C,2) !wedge!B,,2 | (A,,E, !wedge!A,2) !wedge!G,2 | %194
 !wedge!F,2 !wedge!E,2 !wedge!D,2 | !wedge!E,2 !wedge!D,2 !wedge!E,2 | %196
!mf! (A,,C, !wedge!F,2) !wedge!A,,2 | !wedge!G,,2 !wedge!E,2 !wedge!G,,2 | %198
 (F,,A,, !wedge!D,2) !wedge!F,,2 | (E,,2 C,2 E,,2) | (F,A, !wedge!C2) !wedge!G,2 | %201
 !wedge!E,2 !wedge!C2 !wedge!E,2 | (D,F, !wedge!B,2) !wedge!D,2 | (C,2 A,2 C,2) | %204
 (_B,D !wedge!G2) !wedge!B,2 | !wedge!A,2 !wedge!F2 !wedge!A,2 | (G,_B, !wedge!E2) !wedge!G,2 | %207
 (E,2 ^C2 E,2) |!p! (=F,,_G,, !wedge!_A,,2) !wedge!G,,2 | (F,,_E, !wedge!_D,2) !wedge!C,2 | %210
 !wedge!_B,,2 !wedge!_A,,2 !wedge!_G,,2 | !wedge!F,,2 !wedge!=E,,2 !wedge!F,,2 | %212
!mf! (^F,,G,, !wedge!A,,2) !wedge!G,,2 | (^F,,_E, !wedge!D,2) !wedge!C,2 | %214
 !wedge!_B,,2 !wedge!A,,2 !wedge!G,,2 | !wedge!^F,,2 !wedge!E,,2 !wedge!F,,2 | %216
!f! (G,,_A,, !wedge!_B,,2) !wedge!A,,2 | (G,,_A, !wedge!G,2) !wedge!_E,2 | %218
 !wedge!C,2 !wedge!_D,2 !wedge!C,2 | !wedge!_G,2 !wedge!F,2 !wedge!G,2 | %220
!ff! (_A,,_E, !wedge!_A,2) !wedge!A,,2 | !wedge!=A,2 !wedge!B,,2 !wedge!A,2 | %222
 (_B,,F, !wedge!_B,2) !wedge!B,,2 | !wedge!=B,2 !wedge!=D,2 !wedge!B,2 | %224
 (C,G, !wedge!C2) !wedge!C,2 | !wedge!^C2 !wedge!^D,2 !wedge!C2 | (D,A, !wedge!D2) !wedge!D,2 | %227
 !wedge!^D2 !wedge!^F,2 !wedge!D2 | !wedge![=E,E]2 !wedge![_E,_E]2 !wedge![=E,=E]2 | %229
 !wedge![F,F]2 !wedge![E,E]2 !wedge![F,F]2 | [^F,^F]6- | [F,F]2 !wedge![^F,^F]2 !wedge![F,F]2 | %232
 !wedge![G,G]2 !wedge!G2 !wedge!F2 | !wedge!_E2 !wedge!D2 !wedge!C2 | %234
 !wedge!_B,2 !wedge!_A,2 !wedge!G,2 | !wedge!F,2 !wedge!_E,2 !wedge!F,2 | G,6 | G6 | C7/2 C/ C2 | %239
 G,6 | [D,D]6 | [G,,G,]6 | [D,D]6 | [G,,G,]6 | [_E,_E]6 | [_E,_E]6 | [_E,_E]6 | [_E,_E]6 | %248
 ([C,C][D,D] !wedge![_E,_E]2) !wedge![D,D]2 | !wedge![C,C]2 !wedge![B,,B,]2 !wedge![_B,,_B,]2 | %250
 !wedge![A,,A,]2 !wedge![_A,,_A,]2 !wedge![G,,G,]2 | %251
 !wedge![F,,F,]2 !wedge![_E,,_E,]2 !wedge![D,,D,]2 | [G,,G,]6 | [G,G]6 | [C,C]7/2 [C,C]/ [C,C]2 | %255
 [G,,G,]6 | ([C,C][D,D] !wedge![_E,_E]2) !wedge![D,D]2 | %257
 !wedge![C,C]2 !wedge![B,,B,]2 !wedge![_B,,_B,]2 | %258
 !wedge![A,,A,]2 !wedge![_A,,_A,]2 !wedge![G,,G,]2 | %259
 !wedge![F,,F,]2 !wedge![_E,,_E,]2 !wedge![D,,D,]2 | (C,D, !wedge!_E,2) !wedge!D,2 | %261
 (C,D, !wedge!_E,2) !wedge!D,2 | (C,D, !wedge!_E,2) !wedge!D,2 | (C,D, !wedge!_E,2) !wedge!D,2 | %264
 (C,D, !wedge!_E,2) !wedge!D,2 | (C,D, !wedge!_E,2) !wedge!D,2 | (C,D, !wedge!_E,2) !wedge!D,2 | %267
 (C,D, !wedge!_E,2) !wedge!G,2 | C2 z4 |] %269
V:3
 x6 | x6 | x6 | x6 | x6 | x6 | x6 | x6 | x6 | x6 | x6 | x6 | x6 | x6 | x6 | x6 | x6 | x6 | x6 | %19
 x6 | x6 | x6 | x6 | x6 | x6 | x6 | x6 | x6 | x6 | x6 | x6 | x6 | x6 | x6 | x6 | x6 | x6 | x6 | %38
 x6 | x6 | x6 | x6 | x6 | x6 | x6 | x6 | x6 | x6 | x6 | x6 | x6 | x6 | x6 | x6 | x6 | x6 | x6 | %57
 x6 | x6 | x6 | x6 | x6 | x6 | x6 | x6 | x6 | x6 | x6 | x6 | x6 | x6 | x6 | x6 | x6 | x6 | x6 | %76
 x6 | x6 | x6 | x6 | x6 | x6 | x6 | x6 | x6 | x6 | x6 | x6 | x6 | x6 | x6 | x6 | x6 | x6 | x6 | %95
 x6 | x6 | x6 | x6 | x6 | x6 | x6 | x6 | x6 | x6 | x6 | x6 | x6 | x6 | x6 | x6 | x6 | x6 | x6 | %114
 x6 | e6 | e6 | B7/2 B/ B2 | E6 | x6 | x6 | x6 | x6 | x6 | x6 | x6 | x6 | x6 | x6 | x6 | x6 | x6 | %132
 x6 | x6 | x6 | x6 | x6 | x6 | x6 | x6 | x6 | x6 | x6 | x6 | x6 | x6 | x6 | x6 | x6 | x6 | x6 | %151
 x6 | x6 | x6 | x6 | x6 | x6 | x6 | x6 | x6 | x6 | x6 | x6 | x6 | x6 | x6 | x6 | x6 | x6 | x6 | %170
 x6 | x6 | x6 | x6 | x6 | x6 | x6 | x6 | x6 | x6 | x6 | x6 | x6 | x6 | x6 | x6 | x6 | x6 | x6 | %189
 x6 | x6 | x6 | x6 | x6 | x6 | x6 | x6 | x6 | x6 | x6 | x6 | x6 | x6 | x6 | x6 | x6 | x6 | x6 | %208
 x6 | x6 | x6 | x6 | x6 | x6 | x6 | x6 | x6 | x6 | x6 | x6 | x6 | x6 | x6 | x6 | x6 | x6 | x6 | %227
 x6 | x6 | x6 | x6 | x6 | x6 | x6 | x6 | x6 | x6 | x6 | x6 | x6 | x6 | x6 | x6 | x6 | x6 | x6 | %246
 x6 | x6 | x6 | x6 | x6 | x6 | x6 | x6 | x6 | x6 | x6 | x6 | x6 | x6 | x6 | x6 | x6 | x6 | x6 | %265
 x6 | x6 | x6 | x6 |] %269

